X: 122
T: Nells Frolic 
T: (or Merrily danc'd the quaker's Wife)
T: (or the Awkard Recruit)
N: The 3rd title is hand-written on the page.
%R: jig
Z: 2014 John Chambers <jc:trillian.mit.edu>
B: Thompson "Twenty four Country Dances for the Year 1805" p.12 #2
F: http://folkopedia.efdss.org/images/2/2a/Thompson_24_1805.PDF 2014-8-13
M: 6/8
L: 1/8
K: D
[|\
d>ef A2f | g2f e2d | d>ef A2A | (B3 d3) |\
d>ef A2f | {a}g2f e2d | d>ef A2A | (B3 d2) d |]
d2f a2f | b2g a2f | d2f a2g | (f3 a2)f |\
b2g efg | a2f d2d | d>ef A2A | (B3 d2) d |]
% - - - - - - - - - - - - - - - - - - - - - - - - -
%%begintext align
%% Change sides back again, hands across,
%% back again, lead down the middle up
%% again right and left.
%%endtext
% - - - - - - - - - - - - - - - - - - - - - - - - -
